brandFactory_export/1.Light/factura digital_1Light.svg

<?xml version="1.0" encoding="UTF-8"?>
<svg width="24px" height="24px" viewBox="0 0 24 24" version="1.1" xmlns="http://www.w3.org/2000/svg" xmlns:xlink="http://www.w3.org/1999/xlink">
    <title>1.Light/factura digital_1Light</title>
    <g id="Symbols" stroke="none" stroke-width="1" fill="none" fill-rule="evenodd">
        <g id="1.Light/factura-digital_1Light" fill="#5CB615" fill-rule="nonzero">
            <path d="M23.2773109,19.7983193 C23.4621849,19.7983193 23.6134454,19.9495798 23.6134454,20.1344538 C23.6134454,20.3193277 23.4621849,20.4705882 23.2773109,20.4705882 L0.336134454,20.4705882 C0.151260504,20.4705882 2.62978972e-10,20.3193277 2.62978972e-10,20.1344538 C2.62978972e-10,19.9495798 0.151260504,19.7983193 0.336134454,19.7983193 L23.2773109,19.7983193 Z M20.010084,4.02689076 C21.2268908,4.02689076 22.1512605,4.37983193 22.7596639,5.07563025 C23.3310924,5.73109244 23.6235294,6.69915966 23.6235294,7.95294118 L23.6235294,13.8789916 C23.6235294,15.1327731 23.3344538,16.1008403 22.7596639,16.7563025 C22.1512605,17.4554622 21.2268908,17.8084034 20.010084,17.8084034 L3.62352941,17.8084034 C2.40672269,17.8084034 1.48235294,17.4554622 0.87394958,16.7596639 C0.299159664,16.1008403 0.0100840339,15.1327731 0.0100840339,13.8789916 L0.0100840339,7.95294118 C0.0100840339,6.69915966 0.299159664,5.73109244 0.87394958,5.07563025 C1.48235294,4.37983193 2.40672269,4.02689076 3.62352941,4.02689076 L20.010084,4.02689076 Z M20.010084,4.69915966 L3.62352941,4.69915966 C1.61680672,4.69915966 0.682352941,5.73445378 0.682352941,7.95630252 L0.682352941,13.8823529 C0.682352941,16.1042017 1.61680672,17.1394958 3.62352941,17.1394958 L20.010084,17.1394958 C22.0168067,17.1394958 22.9512605,16.1042017 22.9512605,13.8823529 L22.9512605,7.95294118 C22.9512605,5.73109244 22.0168067,4.69915966 20.010084,4.69915966 Z M12.497479,6.49411765 C12.5882353,6.49411765 12.6722689,6.53109244 12.7361345,6.59159664 L15.005042,8.86386555 C15.0221095,8.88093306 15.0370165,8.89944094 15.0496988,8.91913257 L15.005042,8.86386555 C15.0317562,8.89057976 15.0530266,8.92064405 15.0688531,8.95269304 C15.072754,8.96116335 15.0765796,8.96994936 15.0800177,8.97889423 C15.0857809,8.99261261 15.0902117,9.00663999 15.0936988,9.02084945 C15.0948775,9.02856415 15.0965099,9.03664548 15.097854,9.04481117 C15.1012683,9.06027406 15.1027841,9.07576488 15.1032254,9.09128029 C15.1024627,9.09496965 15.102521,9.0987395 15.102521,9.10252101 L15.102521,14.7394958 C15.102521,15.0957983 14.8638655,15.3378151 14.5042017,15.3378151 L9.13613445,15.3378151 C8.76638655,15.3378151 8.52773109,15.0957983 8.52773109,14.7260504 L8.52773109,7.09915966 C8.52773109,6.73277311 8.76638655,6.49411765 9.13613445,6.49411765 L12.497479,6.49411765 Z M12.161,7.16589076 L9.2,7.16638655 L9.2,14.6655462 L14.4302521,14.6655462 L14.43,9.43789076 L13.3647059,9.43865546 C12.6218487,9.43865546 12.1613445,8.90084034 12.1613445,8.03361345 L12.161,7.16589076 Z M13.4084034,12.8504202 C13.5932773,12.8504202 13.7445378,13.0016807 13.7445378,13.1865546 C13.7445378,13.3714286 13.589916,13.5226891 13.405042,13.5226891 L10.2285714,13.5226891 C10.0436975,13.5226891 9.89243698,13.3714286 9.89243698,13.1865546 C9.89243698,13.0016807 10.0436975,12.8504202 10.2285714,12.8504202 L13.4084034,12.8504202 Z M13.4084034,11.4890756 C13.5932773,11.4890756 13.7445378,11.6403361 13.7445378,11.8252101 C13.7445378,12.010084 13.589916,12.1613445 13.405042,12.1613445 L10.2285714,12.1613445 C10.0436975,12.1613445 9.89243698,12.010084 9.89243698,11.8252101 C9.89243698,11.6403361 10.0436975,11.4890756 10.2285714,11.4890756 L13.4084034,11.4890756 Z M13.4084034,10.1277311 C13.5932773,10.1277311 13.7445378,10.2789916 13.7445378,10.4638655 C13.7445378,10.6487395 13.589916,10.8 13.405042,10.8 L10.2285714,10.8 C10.0436975,10.8 9.89243698,10.6487395 9.89243698,10.4638655 C9.89243698,10.2789916 10.0436975,10.1277311 10.2285714,10.1277311 L13.4084034,10.1277311 Z M12.8336134,7.64369748 L12.8336134,8.03361345 C12.8336134,8.51764706 13.0117647,8.76638655 13.3647059,8.76638655 L13.9529412,8.76638655 L12.8336134,7.64369748 Z" id="factura-digital_1Light"></path>
        </g>
    </g>
</svg>

<svg width="24" height="24" viewBox="0 0 24 24" xmlns="http://www.w3.org/2000/svg"><path d="M23.277 19.798c.185 0 .336.152.336.336a.337.337 0 01-.336.337H.337A.337.337 0 010 20.134c0-.184.151-.336.336-.336h22.941zM20.01 4.027c1.217 0 2.141.353 2.75 1.049.571.655.864 1.623.864 2.877v5.926c0 1.254-.29 2.222-.864 2.877-.609.7-1.533 1.052-2.75 1.052H3.624c-1.217 0-2.142-.353-2.75-1.048C.299 16.1.01 15.133.01 13.879V7.953c0-1.254.29-2.222.864-2.877.608-.696 1.533-1.05 2.75-1.05H20.01zm0 .672H3.624C1.617 4.7.682 5.734.682 7.956v5.926c0 2.222.935 3.257 2.942 3.257H20.01c2.007 0 2.941-1.035 2.941-3.257v-5.93c0-2.22-.934-3.253-2.94-3.253zm-7.513 1.795c.091 0 .175.037.24.098l2.268 2.272a.334.334 0 01.045.055l-.045-.055a.336.336 0 01.089.157c0 .008.003.016.004.024a.247.247 0 01.005.046v5.648c0 .357-.24.599-.599.599H9.136c-.37 0-.608-.242-.608-.612V7.1c0-.366.238-.605.608-.605h3.361zm-.336.672H9.2v7.5h5.23V9.438h-1.065c-.743 0-1.204-.537-1.204-1.404v-.868zm1.247 5.684c.185 0 .337.152.337.337a.34.34 0 01-.34.336h-3.176a.337.337 0 01-.337-.336c0-.185.152-.337.337-.337h3.18zm0-1.36c.185 0 .337.15.337.335a.34.34 0 01-.34.336h-3.176a.337.337 0 01-.337-.336c0-.185.152-.336.337-.336h3.18zm0-1.362c.185 0 .337.151.337.336a.34.34 0 01-.34.336h-3.176a.337.337 0 01-.337-.336c0-.185.152-.336.337-.336h3.18zm-.574-2.484v.39c0 .484.178.732.53.732h.589l-1.12-1.122z" fill="#5CB615" fill-rule="nonzero"/></svg>
